public/images/icon_id_sector_empresa_12.svg

<svg width="42" height="42" viewBox="0 0 42 42" fill="none" xmlns="http://www.w3.org/2000/svg">
<path d="M20.895 26.381C21.2756 26.381 21.5775 26.0791 21.5775 25.6985C21.5775 25.3179 21.2756 25.016 20.895 25.016H10.2768C7.91435 25.016 6.82497 18.8341 6.7856 12.6391C9.21372 13.4923 11.7337 14.0435 14.2931 14.2404V18.401C14.2931 19.6348 15.3037 20.6454 16.5375 20.6454H18.6243C19.8712 20.6454 20.8687 19.6348 20.8687 18.401V14.2404C23.4281 14.0435 25.9481 13.4923 28.3762 12.626C28.3762 13.4135 28.35 14.516 28.2581 15.7498C28.245 15.9991 28.3631 16.2354 28.56 16.3666C28.7568 16.4979 29.0193 16.5241 29.2425 16.406C29.4656 16.301 29.61 16.0779 29.6231 15.8416C29.715 14.4373 29.7281 13.2035 29.7412 12.3898C29.7412 11.996 29.5443 11.6154 29.2162 11.3923C28.8881 11.1691 28.4681 11.1166 28.1006 11.2741C26.9718 11.7073 25.8037 12.0485 24.6225 12.2979C23.5856 8.04539 20.7637 5.19727 17.5743 5.19727C14.385 5.19727 11.5631 8.04539 10.5262 12.2979C9.34497 12.0485 8.17685 11.7073 7.0481 11.2873C6.6806 11.1429 6.2606 11.1823 5.93247 11.4054C5.60435 11.6285 5.40747 11.996 5.40747 12.4029C5.40747 16.6029 5.8931 26.3941 10.2768 26.3941H20.8818L20.895 26.381ZM11.8781 12.5473C12.4031 10.4341 13.4268 8.70164 14.7393 7.63852C14.1093 8.96414 13.65 10.7491 13.4137 12.7704C12.9018 12.7048 12.3768 12.6391 11.8781 12.5473ZM20.4225 7.63852C21.735 8.68852 22.7587 10.4341 23.2837 12.5473C22.785 12.626 22.2731 12.7048 21.7481 12.7704C21.5118 10.7491 21.0525 8.96414 20.4225 7.63852ZM14.7787 12.9016C15.2381 8.92477 16.5506 6.56227 17.5875 6.56227C18.6243 6.56227 19.9368 8.93789 20.3962 12.9016C18.5587 13.046 16.6162 13.046 14.7918 12.9016H14.7787ZM15.6581 14.3323C16.9312 14.3979 18.2306 14.3979 19.5037 14.3323V18.3879C19.5037 18.8735 19.11 19.2673 18.6243 19.2673H16.5375C16.0518 19.2673 15.6581 18.8735 15.6581 18.3879V14.3323Z" fill="url(#paint0_linear_133_1156)"/>
<path d="M10.5525 22.9161C10.29 22.5223 10.0932 22.0892 9.9619 21.6167C9.89628 21.3805 9.6994 21.1836 9.45003 21.1311C9.20065 21.0786 8.95128 21.1573 8.78065 21.3542C8.62315 21.538 8.57065 21.8136 8.6494 22.0367C9.25315 23.9005 9.8044 24.1367 10.0144 24.2286C10.0932 24.268 10.1982 24.2811 10.2769 24.2811H11.8257C12.2063 24.2811 12.5082 23.9792 12.5082 23.5986C12.5082 23.2573 12.2588 22.9817 11.9438 22.9292H10.5263L10.5525 22.9161Z" fill="url(#paint1_linear_133_1156)"/>
<path d="M17.0625 18.0335H18.1125C18.4931 18.0335 18.795 17.7316 18.795 17.351C18.795 16.9703 18.4931 16.6685 18.1125 16.6685H17.0625C16.6819 16.6685 16.38 16.9703 16.38 17.351C16.38 17.7316 16.6819 18.0335 17.0625 18.0335Z" fill="url(#paint2_linear_133_1156)"/>
<path d="M34.4925 14.9887C33.8756 14.28 32.7863 14.2143 32.0775 14.8181C27.3919 18.8343 24.1238 23.52 21.735 26.9325L21.6431 27.0637C21.3019 27.5493 20.9869 28.0087 20.6719 28.4418C18.4931 31.5 15.5006 29.4131 15.3694 29.3212C15.0544 29.085 14.5556 28.9668 13.0988 29.61C12.1275 30.0431 11.2613 30.6337 10.5131 31.395C9.76502 32.1431 8.54439 33.5868 8.79377 34.8993C8.93814 35.5687 9.43689 36.1068 10.08 36.33C11.025 36.6712 12.0094 36.8418 13.0069 36.8418C13.1381 36.8418 13.2563 36.8418 13.3875 36.8418H20.685C23.3494 36.8418 24.1763 35.3981 25.5413 33.0093C26.04 32.13 26.67 31.0275 27.5231 29.7543C28.2188 28.7306 29.0456 27.7987 29.9775 26.9718C30.6206 28.3368 30.9619 29.8593 30.9619 31.3687V35.6343C30.9619 36.3037 31.5 36.8418 32.1694 36.8418H33.7313C34.4006 36.8418 34.9388 36.3037 34.9388 35.6343V29.8068C34.9388 28.8881 35.0569 27.9825 35.2931 27.1031L35.7919 25.2525C36.3694 23.1525 36.4875 22.7193 36.4875 22.6668C36.8681 18.48 35.385 16.0781 34.4531 15.0281L34.4925 14.9887ZM31.08 26.0531C32.235 25.1737 33.495 24.3993 34.8075 23.7693L34.0069 26.7093C33.7313 27.7068 33.6 28.7437 33.6 29.7806V35.4506H32.3663V31.3556C32.3663 29.5312 31.92 27.6937 31.0931 26.0662L31.08 26.0531ZM33.4556 15.8812C34.1906 16.7212 35.3981 18.6506 35.1881 22.0762C33.705 22.6931 29.1506 24.8325 26.3944 28.9537C25.4888 30.3056 24.8456 31.4606 24.36 32.2875C23.0213 34.6368 22.575 35.4243 20.6981 35.4243H13.3875C12.4294 35.4637 11.4975 35.3325 10.605 35.0175C10.185 34.8468 10.1456 34.65 10.1325 34.5843C10.0538 34.2037 10.4344 33.3506 11.4713 32.3268C12.1013 31.6968 12.8231 31.185 13.65 30.8175C13.965 30.6468 14.3194 30.5418 14.6738 30.4762C15.3825 30.9225 16.17 31.2243 16.9969 31.3556C18.3094 31.5656 20.2125 31.3556 21.7744 29.19C22.1025 28.7437 22.4306 28.2581 22.785 27.7593L22.8375 27.6806C25.1869 24.3206 28.4025 19.74 32.9438 15.8287C33.0881 15.7106 33.3113 15.7237 33.4294 15.8681L33.4556 15.8812Z" fill="url(#paint3_linear_133_1156)"/>
<path d="M13.9913 31.4868H13.9519C13.2169 31.8281 12.5606 32.2874 12.0094 32.8518C11.7994 33.0618 11.5894 33.2981 11.4056 33.5212C11.2613 33.7181 11.2219 33.9806 11.3138 34.2037C11.4056 34.4268 11.6156 34.5974 11.8519 34.6237C11.8781 34.6237 11.9175 34.6237 11.9438 34.6237C12.1538 34.6237 12.3506 34.5318 12.4819 34.3612C12.6263 34.1774 12.7838 33.9937 12.9675 33.8231C13.4138 33.3768 13.9256 33.0093 14.5031 32.7468C14.8313 32.5893 14.9756 32.1956 14.8313 31.8543C14.6869 31.5262 14.3194 31.3687 13.9913 31.4737V31.4868Z" fill="url(#paint4_linear_133_1156)"/>
<defs>
<linearGradient id="paint0_linear_133_1156" x1="17.3338" y1="5.19726" x2="27.6467" y2="12.4892" gradientUnits="userSpaceOnUse">
<stop stop-color="#192644"/>
<stop offset="1" stop-color="#1A4081"/>
</linearGradient>
<linearGradient id="paint1_linear_133_1156" x1="10.5222" y1="21.1152" x2="12.095" y2="22.3071" gradientUnits="userSpaceOnUse">
<stop stop-color="#192644"/>
<stop offset="1" stop-color="#1A4081"/>
</linearGradient>
<linearGradient id="paint2_linear_133_1156" x1="17.5636" y1="16.6685" x2="18.2654" y2="17.4332" gradientUnits="userSpaceOnUse">
<stop stop-color="#192644"/>
<stop offset="1" stop-color="#1A4081"/>
</linearGradient>
<linearGradient id="paint3_linear_133_1156" x1="22.38" y1="14.4072" x2="33.546" y2="22.9257" gradientUnits="userSpaceOnUse">
<stop stop-color="#192644"/>
<stop offset="1" stop-color="#1A4081"/>
</linearGradient>
<linearGradient id="paint4_linear_133_1156" x1="13.0399" y1="31.4414" x2="14.5839" y2="32.524" gradientUnits="userSpaceOnUse">
<stop stop-color="#192644"/>
<stop offset="1" stop-color="#1A4081"/>
</linearGradient>
</defs>
</svg>

<svg xmlns="http://www.w3.org/2000/svg" fill="none" viewBox="0 0 42 42"><path fill="url(#a)" d="M20.9 26.38c.38 0 .68-.3.68-.68 0-.38-.3-.68-.68-.68H10.28c-2.37 0-3.46-6.19-3.5-12.38 2.43.85 4.95 1.4 7.51 1.6v4.16a2.25 2.25 0 0 0 2.25 2.25h2.08a2.24 2.24 0 0 0 2.25-2.25v-4.16c2.56-.2 5.08-.75 7.5-1.61 0 .78-.02 1.89-.11 3.12a.7.7 0 0 0 .3.62c.2.13.46.15.68.04.23-.1.37-.33.38-.57.1-1.4.1-2.64.12-3.45 0-.4-.2-.77-.52-1a1.17 1.17 0 0 0-1.12-.12c-1.13.44-2.3.78-3.48 1.03-1.03-4.25-3.86-7.1-7.05-7.1s-6 2.85-7.04 7.1c-1.19-.25-2.35-.6-3.48-1.01A1.2 1.2 0 0 0 5.4 12.4c0 4.2.48 13.98 4.87 13.98H20.9Zm-9.02-13.83a9.09 9.09 0 0 1 2.86-4.91 16.86 16.86 0 0 0-1.33 5.13c-.5-.07-1.03-.13-1.53-.22Zm8.54-4.91a9.04 9.04 0 0 1 2.86 4.9c-.5.09-1 .16-1.53.23-.24-2.02-.7-3.8-1.33-5.13Zm-5.64 5.26c.46-3.98 1.77-6.34 2.8-6.34 1.04 0 2.36 2.38 2.82 6.34a36.3 36.3 0 0 1-5.6 0h-.02Zm.88 1.43c1.27.07 2.57.07 3.84 0v4.06c0 .48-.39.88-.88.88h-2.08a.88.88 0 0 1-.88-.88v-4.06Z"/><path fill="url(#b)" d="M10.55 22.92a4.5 4.5 0 0 1-.59-1.3.69.69 0 0 0-1.18-.27.72.72 0 0 0-.13.69c.6 1.86 1.15 2.1 1.36 2.19.08.04.19.05.27.05h1.55a.68.68 0 0 0 .12-1.35h-1.42l.02-.01Z"/><path fill="url(#c)" d="M17.06 18.03h1.05c.38 0 .69-.3.69-.68 0-.38-.3-.68-.69-.68h-1.05c-.38 0-.68.3-.68.68 0 .38.3.68.68.68Z"/><path fill="url(#d)" d="M34.5 14.99c-.62-.71-1.71-.78-2.42-.17-4.69 4.01-7.96 8.7-10.34 12.11l-.1.13c-.34.49-.65.95-.97 1.38-2.18 3.06-5.17.97-5.3.88-.32-.23-.81-.35-2.27.29a8.37 8.37 0 0 0-2.59 1.79c-.74.74-1.97 2.19-1.72 3.5.15.67.65 1.2 1.29 1.43a8.6 8.6 0 0 0 2.93.51h7.68c2.66 0 3.49-1.44 4.85-3.83.5-.88 1.13-1.98 1.98-3.26.7-1.02 1.53-1.95 2.46-2.78.64 1.37.98 2.89.98 4.4v4.26c0 .67.54 1.21 1.2 1.21h1.57c.67 0 1.2-.54 1.2-1.2V29.8c0-.92.13-1.83.36-2.7l.5-1.86c.58-2.1.7-2.53.7-2.58.38-4.19-1.1-6.6-2.04-7.64l.04-.04Zm-3.42 11.06a21.65 21.65 0 0 1 3.73-2.28L34 26.7c-.28 1-.41 2.03-.41 3.07v5.67h-1.23v-4.1c0-1.82-.45-3.66-1.28-5.28l-.01-.02Zm2.38-10.17c.73.84 1.94 2.77 1.73 6.2-1.48.61-6.04 2.75-8.8 6.87-.9 1.36-1.54 2.51-2.03 3.34-1.34 2.35-1.79 3.13-3.66 3.13h-7.31c-.96.04-1.9-.09-2.79-.4-.41-.17-.45-.37-.47-.44-.08-.38.3-1.23 1.34-2.25a7.2 7.2 0 0 1 2.18-1.51c.31-.17.67-.28 1.02-.34.71.44 1.5.74 2.33.88 1.3.2 3.21 0 4.77-2.17l1.02-1.43.05-.08c2.35-3.36 5.56-7.94 10.1-11.85.15-.12.37-.1.49.04l.03.01Z"/><path fill="url(#e)" d="M14 31.49h-.05a6.57 6.57 0 0 0-2.54 2.03.71.71 0 0 0-.1.68c.1.23.3.4.54.42h.1c.2 0 .4-.09.53-.26.15-.18.3-.37.49-.54.44-.44.96-.81 1.53-1.07a.69.69 0 0 0-.5-1.28v.02Z"/><defs><linearGradient id="a" x1="17.33" x2="27.65" y1="5.2" y2="12.49" gradientUnits="userSpaceOnUse"><stop stop-color="#192644"/><stop offset="1" stop-color="#1A4081"/></linearGradient><linearGradient id="b" x1="10.52" x2="12.1" y1="21.12" y2="22.31" gradientUnits="userSpaceOnUse"><stop stop-color="#192644"/><stop offset="1" stop-color="#1A4081"/></linearGradient><linearGradient id="c" x1="17.56" x2="18.27" y1="16.67" y2="17.43" gradientUnits="userSpaceOnUse"><stop stop-color="#192644"/><stop offset="1" stop-color="#1A4081"/></linearGradient><linearGradient id="d" x1="22.38" x2="33.55" y1="14.41" y2="22.93" gradientUnits="userSpaceOnUse"><stop stop-color="#192644"/><stop offset="1" stop-color="#1A4081"/></linearGradient><linearGradient id="e" x1="13.04" x2="14.58" y1="31.44" y2="32.52" gradientUnits="userSpaceOnUse"><stop stop-color="#192644"/><stop offset="1" stop-color="#1A4081"/></linearGradient></defs></svg>
